src/icons/svg/international.svg

<?xml version="1.0" encoding="UTF-8" standalone="no"?>
<svg width="128px" height="128px" viewBox="0 0 128 128" version="1.1" xmlns="http://www.w3.org/2000/svg" xmlns:xlink="http://www.w3.org/1999/xlink">
    <!-- Generator: Sketch 40 (33762) - http://www.bohemiancoding.com/sketch -->
    <title>international</title>
    <desc>Created with Sketch.</desc>
    <defs></defs>
    <g id="Page-1" stroke="none" stroke-width="1" fill="none" fill-rule="evenodd">
        <g id="international" fill="#000000">
            <path d="M83.2872727,103.010909 C81.7163636,99.1709091 76.5090909,92.5963636 67.84,83.4618181 C65.5127272,81.0181817 65.6581819,79.1563636 66.5018181,73.6 L66.5018181,72.96 C67.0545454,69.1490909 68.0145454,66.9090909 80.8145455,64.8727272 C87.3309091,63.8545454 89.0181819,66.4436364 91.4036364,70.0509091 L92.1890909,71.2436364 C93.6864372,73.6522145 95.9511199,75.4865051 98.6181819,76.4509091 C99.7527274,76.9745455 101.149091,77.6145455 103.04,78.6909091 C107.636364,81.2218181 107.636364,84.1018181 107.636364,90.4436364 L107.636364,91.1709091 C107.990785,97.414016 106.159864,103.585658 102.458182,108.625454 C96.8625582,113.459313 90.4088823,117.199287 83.4327273,119.650909 C86.9236364,113.105455 84.2472728,105.338182 83.4327273,103.098182 L83.2872727,103.010909 Z M64,5.12 C72.824642,5.11254539 81.5366319,7.10158421 89.4836364,10.9381819 C84.6968731,13.7060148 80.3608367,17.188578 76.6254545,21.2654545 C75.6945454,22.5454545 74.9090909,23.7381817 74.1527272,24.8436364 C71.7090909,28.5381819 70.5163636,30.1963636 68.3345455,30.4581819 C66.9309745,30.5765132 65.5199346,30.5765132 64.1163636,30.4581819 C59.84,30.1672727 54.0218181,29.8181819 52.16,34.88 C50.9672728,38.1090909 50.7636364,46.8363636 54.6036364,51.3745455 C55.2633561,52.4518133 55.3817339,53.7754921 54.9236364,54.9527272 C54.5484786,56.2000589 53.8332593,57.3182188 52.8581819,58.1818181 C51.7857224,57.3206379 50.8102712,56.3451867 49.9490909,55.2727272 C47.8636896,52.3217711 44.976421,50.0301278 41.6290909,48.6690909 C40.3781818,48.32 38.9818181,48.0290909 37.6436364,47.7381819 C33.8618182,46.9527274 29.6145455,46.0509091 28.6254545,43.9272727 C27.9999185,42.0552245 27.7527049,40.0775157 27.8981819,38.1090909 C28.103425,34.9609176 27.6271378,31.8055155 26.5018181,28.8581819 C25.4634584,26.4754304 23.432533,24.6678005 20.9454545,23.9127272 C32.0558039,11.9290607 47.6583928,5.11874149 64,5.12 L64,5.12 Z M0,64 C4.32866401e-15,99.346224 28.653776,128 64,128 C99.346224,128 128,99.346224 128,64 C128,28.653776 99.346224,2.164332e-15 64,0 C28.653776,-2.164332e-15 4.32866401e-15,28.653776 0,64 L0,64 Z" id="Shape"></path>
        </g>
    </g>
</svg>

<svg width="128" height="128" xmlns="http://www.w3.org/2000/svg"><path d="M83.287 103.01c-1.57-3.84-6.778-10.414-15.447-19.548-2.327-2.444-2.182-4.306-1.338-9.862v-.64c.553-3.81 1.513-6.05 14.313-8.087 6.516-1.018 8.203 1.57 10.589 5.178l.785 1.193a12.625 12.625 0 0 0 6.43 5.207c1.134.524 2.53 1.164 4.421 2.24 4.596 2.53 4.596 5.41 4.596 11.753v.727a26.91 26.91 0 0 1-5.178 17.454 59.055 59.055 0 0 1-19.025 11.026c3.49-6.546.814-14.313 0-16.553l-.146-.087zM64 5.12a58.502 58.502 0 0 1 25.484 5.818 54.313 54.313 0 0 0-12.859 10.327c-.93 1.28-1.716 2.473-2.472 3.579-2.444 3.694-3.637 5.352-5.818 5.614a25.105 25.105 0 0 1-4.219 0c-4.276-.29-10.094-.64-11.956 4.422-1.193 3.23-1.396 11.956 2.444 16.495.66 1.077.778 2.4.32 3.578a7.01 7.01 0 0 1-2.066 3.229 18.938 18.938 0 0 1-2.909-2.91 18.91 18.91 0 0 0-8.32-6.603c-1.25-.349-2.647-.64-3.985-.93-3.782-.786-8.03-1.688-9.019-3.812a14.895 14.895 0 0 1-.727-5.818 21.935 21.935 0 0 0-1.396-9.25 8.873 8.873 0 0 0-5.557-4.946A58.705 58.705 0 0 1 64 5.12zM0 64c0 35.346 28.654 64 64 64 35.346 0 64-28.654 64-64 0-35.346-28.654-64-64-64C28.654 0 0 28.654 0 64z" fill-rule="evenodd"/></svg>
